static/assets/images/tokens/frax-mono.svg

<svg width="256" height="256" viewBox="0 0 256 256" fill="none" xmlns="http://www.w3.org/2000/svg">
<path fill-rule="evenodd" clip-rule="evenodd" d="M256 128C256 198.692 198.692 256 128 256C57.3075 256 0 198.692 0 128C0 57.3075 57.3075 0 128 0C198.692 0 256 57.3075 256 128ZM42.055 62.8735C42.1031 62.7773 46.8707 57.6762 52.6495 51.6127L63.0996 40.448L65.2185 42.5173C66.3743 43.6723 71.2381 48.2921 76.0057 52.8157C78.2954 55.0114 80.5961 57.1959 82.4866 58.9909C84.5324 60.9333 86.0977 62.4195 86.6484 62.9698L88.6228 64.8947L90.3565 63.836C91.3196 63.2585 93.7756 61.9111 95.8945 60.9005C103.214 57.2431 110.39 55.0775 119.154 53.8263C122.814 53.297 134.661 53.3932 138.61 53.9707C146.219 55.0775 152.768 57.0506 159.799 60.2749C162.11 61.3336 166.252 63.5954 167.889 64.7022C168.467 65.1354 169.093 65.4241 169.189 65.376C169.334 65.3278 174.728 59.7455 181.229 52.9601C187.73 46.1266 193.172 40.5924 193.364 40.5924C193.653 40.5924 215.324 61.0449 215.516 61.5261C215.565 61.6705 210.027 67.5897 203.236 74.6638L190.86 87.609L191.775 89.1971C193.653 92.3732 196.88 99.303 197.939 102.383C205.259 123.413 202.899 146.223 191.582 165.04L190.234 167.253L193.172 170.045C202.033 178.37 216.528 192.278 216.576 192.422C216.624 192.711 195.483 214.799 195.291 214.703C195.098 214.607 175.835 196.32 170.682 191.315L168.323 189.005L166.107 190.353C157.584 195.502 147.182 199.015 136.683 200.218C131.242 200.892 121.514 200.651 116.409 199.737C106.248 197.908 97.0503 194.443 89.2007 189.438L87.6597 188.476L86.0223 190.112C85.1555 191.026 79.4248 197.042 73.3089 203.442L62.1846 215.04L61.4623 214.414C59.5841 212.874 39.8879 193.866 39.9361 193.721C39.9522 193.705 40.1266 193.52 40.4388 193.189C41.9896 191.543 46.9413 186.288 52.794 180.199C59.8249 172.836 65.6519 166.676 65.7482 166.483C65.8445 166.291 65.4111 165.232 64.448 163.596C62.4736 160.275 60.162 155.223 58.8136 151.276C51.6382 130.391 53.9979 107.677 65.4111 88.8121L66.7114 86.6465L65.989 85.9728C65.6903 85.7117 62.2655 82.4423 57.7568 78.138C56.4499 76.8905 55.052 75.556 53.6127 74.1826C47.2078 68.119 42.0068 63.0179 42.055 62.8735ZM133.505 82.9892C141.162 83.9035 148 86.5022 154.309 90.9295C157.535 93.1913 162.351 98.0037 164.615 101.228C177.472 119.419 175.016 144.154 158.836 159.313C145.015 172.21 125.029 175.098 108.223 166.532C96.0871 160.324 87.5152 148.966 84.7702 135.348C83.9034 131.016 83.9034 122.932 84.7702 118.649C85.5889 114.414 86.6965 111.382 88.7673 107.147C97.0503 90.4964 115.013 80.7755 133.505 82.9892Z" fill="black"/>
</svg>

<svg xmlns="http://www.w3.org/2000/svg" fill="none" viewBox="0 0 256 256"><path fill="#000" fill-rule="evenodd" d="M256 128c0 70.692-57.308 128-128 128S0 198.692 0 128 57.308 0 128 0s128 57.308 128 128M42.055 62.874c.048-.097 4.816-5.198 10.595-11.261L63.1 40.448l2.119 2.07c1.155 1.154 6.02 5.774 10.787 10.298 2.29 2.195 4.59 4.38 6.48 6.175 2.046 1.942 3.612 3.428 4.162 3.979l1.975 1.925 1.733-1.059c.964-.578 3.42-1.925 5.538-2.935 7.32-3.658 14.496-5.824 23.26-7.075 3.66-.529 15.507-.433 19.456.145 7.609 1.107 14.158 3.08 21.189 6.304 2.311 1.059 6.453 3.32 8.09 4.427.578.433 1.204.722 1.3.674.145-.048 5.539-5.63 12.04-12.416 6.501-6.833 11.943-12.368 12.135-12.368.289 0 21.96 20.453 22.152 20.934.049.144-5.489 6.064-12.28 13.138L190.86 87.609l.915 1.588c1.878 3.176 5.105 10.106 6.164 13.186 7.32 21.03 4.96 43.84-6.357 62.657l-1.348 2.213 2.938 2.792c8.861 8.325 23.356 22.233 23.404 22.377.048.289-21.093 22.377-21.285 22.281s-19.456-18.383-24.609-23.388l-2.359-2.31-2.216 1.348c-8.523 5.149-18.925 8.662-29.424 9.865-5.441.674-15.169.433-20.274-.481-10.161-1.829-19.359-5.294-27.208-10.299l-1.541-.962-1.638 1.636c-.867.914-6.597 6.93-12.713 13.33L62.185 215.04l-.723-.626c-1.878-1.54-21.574-20.548-21.526-20.693l.503-.532a1815 1815 0 0 1 12.355-12.99c7.03-7.363 12.858-13.523 12.954-13.716s-.337-1.251-1.3-2.887c-1.974-3.321-4.286-8.373-5.634-12.32-7.176-20.885-4.816-43.6 6.597-62.464l1.3-2.165-.722-.674c-.299-.261-3.724-3.53-8.232-7.835l-4.144-3.955c-6.405-6.064-11.606-11.165-11.558-11.31m91.45 20.115c7.657.914 14.495 3.513 20.804 7.94 3.226 2.262 8.042 7.075 10.306 10.299 12.857 18.191 10.401 42.926-5.779 58.085-13.821 12.897-33.807 15.785-50.613 7.219-12.136-6.208-20.708-17.566-23.453-31.184-.867-4.332-.867-12.416 0-16.699.819-4.235 1.927-7.267 3.997-11.502 8.283-16.65 26.246-26.372 44.738-24.158" clip-rule="evenodd"/></svg>
